X:1
T:Inter
T:Where We're Going 
%%score { 1 | ( 2 4 ) | ( 3 5 ) }
L:1/8
Q:1/8=96
M:6/8
K:C
V:1 treble nm="Pipe Organ" snm="Org."
V:2 treble 
V:4 treble 
V:3 bass-8 
V:5 bass-8 
V:1
!mp! Ae z Ae z | Be z Be z | Ae z Ae z | Be z BeB | Ae z Ae z | Be z Be z | ce z ce z | Be z Be z | %8
 Ae z Ae z | Ae z Ae z | Be z Be z | Ae z Ae z | Be z Be z | ce z ce z | de z deB | Ae z Ae z | %16
 Be z Be z | ce z ce z | de z deB | A/e/e z A/e/e z | B/e/e z B/e/e z | c/e/e z c/e/e z | %22
 d/e/e z d/e/eB | [Aa][ee'][Aa] [Aa][ee'][Aa] | [Bb][ee'][Bb] [Bb][ee'][Bb] | %25
 [cc'][ee'][cc'] [cc'][ee'][cc'] | [dd'][ee'][dd'] [dd'][ee'][Bb] |: [Acfa]6 | [Bdgb]6 | [ceac']6 | %30
 [egbd']6 | [Acfa]6 | [Bdgb]6 | [ceac']6 | [egbd']6 :| %35
V:2
!pp! E/E/E/E/E/E/ E/E/E/E/E/E/ | E/E/E/E/E/E/ E/E/E/E/E/E/ | E/E/E/E/E/E/ E/E/E/E/E/E/ | %3
 E/E/E/E/E/E/ E/E/E/E/E/E/ | E/E/E/E/E/E/ E/E/E/E/E/E/ | E/E/E/E/E/E/ E/E/E/E/E/E/ | %6
 E/E/E/E/E/E/ E/E/E/E/E/E/ | E/E/E/E/E/E/ E/E/E/E/E/E/ | E/E/E/E/E/E/ E/E/E/E/E/E/ | %9
!<(! c3 d3!<)! | e6 | F6 | G6 | A6 | G6 | z2 A z2 A | z2 B z2 B | z2 c z2 c | z2 d z2 B | %19
 z2 A z2 A | z2 B z2 B | z2 c z2 c | z2 d z2 B | %23
 A/4 z/4 A/4 z/4 A/4 z/4 A/4 z/4 A/4 z/4 A/4 z/4 A/4 z/4 A/4 z/4 A/4 z/4 A/4 z/4 A/4 z/4 A/4 z/4 | %24
 B/4 z/4 B/4 z/4 B/4 z/4 B/4 z/4 B/4 z/4 B/4 z/4 B/4 z/4 B/4 z/4 B/4 z/4 B/4 z/4 B/4 z/4 B/4 z/4 | %25
 c/4 z/4 c/4 z/4 c/4 z/4 c/4 z/4 c/4 z/4 c/4 z/4 c/4 z/4 c/4 z/4 c/4 z/4 c/4 z/4 c/4 z/4 c/4 z/4 | %26
 d/4 z/4 d/4 z/4 d/4 z/4 d/4 z/4 d/4 z/4 d/4 z/4 d/4 z/4 d/4 z/4 d/4 z/4 d/4 z/4 d/4 z/4 d/4 z/4 |: %27
 c/4d/4e/4f/4e/4d/4e/4c/4d/4e/4f/4g/4 a/4e'/4f/4g/4a/4g/4f/4g/4f/4g/4a/4b/4 | %28
 c'/4b/4a/4b/4g/4a/4b/4e/4b/4a/4b/4g/4 a/4b/4d'/4e'/4b/4a/4b/4g/4a/4b/4d'/4e'/4 | %29
 c'/4b/4c'/4a/4b/4c'/4d'/4e'/4c'/4b/4c'/4a/4 b/4c'/4d'/4e'/4c'/4b/4c'/4a/4e'/4c'/4b/4c'/4 | %30
 a/4b/4c'/4d'/4c'/4b/4c'/4d'/4e'/4b/4c'/4d'/4 e'/4b/4c'/4b/4c'/4b/4c'/4d'/4e'/4b/4c'/4d'/4 | %31
 c'/4b/4c'/4a/4b/4c'/4d'/4e'/4c'/4b/4c'/4a/4 b/4c'/4d'/4e'/4c'/4b/4c'/4a/4e'/4c'/4b/4a/4 | %32
 c'/4b/4a/4b/4g/4a/4b/4e/4b/4a/4b/4g/4 a/4b/4d'/4e'/4b/4a/4b/4g/4a/4b/4d'/4e'/4 | %33
 c'/4b/4c'/4a/4b/4c'/4d'/4e'/4c'/4b/4c'/4a/4 b/4c'/4d'/4e'/4c'/4b/4c'/4a/4e'/4c'/4b/4c'/4 | %34
 a/4b/4c'/4d'/4c'/4b/4c'/4d'/4e'/4b/4c'/4d'/4 e'/4b/4c'/4b/4c'/4b/4c'/4d'/4e'/4b/4c'/4d'/4 :| %35
V:3
 F,,6 | G,,6 | C,6 | G,,6 | F,,6 | G,,6 | A,,6 | G,,6 | C,6 | F,,6 | G,,6 | z6 | z6 | z6 | z6 | %15
 z6 | z6 | z6 | z6 | z6 | z6 | z6 | z6 | z6 | z6 | z6 | z6 |: z6 | z6 | z6 | z6 | z6 | z6 | z6 | %34
 z6 :| %35
V:4
 x6 | x6 | x6 | x6 | x6 | x6 | x6 | x6 | x6 | E/E/E/E/E/E/ E/E/E/E/E/E/ | %10
 E/E/E/E/E/E/ E/E/E/E/E/E/ | E/E/E/E/E/E/ E/E/E/E/E/E/ | E/E/E/E/E/E/ E/E/E/E/E/E/ | %13
 E/E/E/E/E/E/ E/E/E/E/E/E/ | E/E/E/E/E/E/ E/E/E/E/E/E/ | E/E/E/E/E/E/ E/E/E/E/E/E/ | %16
 E/E/E/E/E/E/ E/E/E/E/E/E/ | E/E/E/E/E/E/ E/E/E/E/E/E/ | E/E/E/E/E/E/ E/E/E/E/E/E/ | %19
 E/E/E/E/E/E/ E/E/E/E/E/E/ | E/E/E/E/E/E/ E/E/E/E/E/E/ | E/E/E/E/E/E/ E/E/E/E/E/E/ | %22
 E/E/E/E/E/E/ E/E/E/E/E/E/ | %23
 z/4 A,/4 z/4 A,/4 z/4 A,/4 z/4 A,/4 z/4 A,/4 z/4 A,/4 z/4 A,/4 z/4 A,/4 z/4 A,/4 z/4 A,/4 z/4 A,/4 z/4 A,/4 | %24
 z/4 B,/4 z/4 B,/4 z/4 B,/4 z/4 B,/4 z/4 B,/4 z/4 B,/4 z/4 B,/4 z/4 B,/4 z/4 B,/4 z/4 B,/4 z/4 B,/4 z/4 B,/4 | %25
 z/4 C/4 z/4 C/4 z/4 C/4 z/4 C/4 z/4 C/4 z/4 C/4 z/4 C/4 z/4 C/4 z/4 C/4 z/4 C/4 z/4 C/4 z/4 C/4 | %26
 z/4 D/4 z/4 D/4 z/4 D/4 z/4 D/4 z/4 D/4 z/4 D/4 z/4 D/4 z/4 D/4 z/4 D/4 z/4 D/4 z/4 D/4 z/4 D/4 |: %27
 x6 | x6 | x6 | x6 | x6 | x6 | x6 | x6 :| %35
V:5
 x6 | x6 | x6 | x6 | x6 | x6 | x6 | x6 | x6 | x6 | x6 | F,,/F,,/F,,/F,,/F,,/F,,/ F,,3 | G,,6 | %13
 A,,6 | G,,6 | F,,/F,,/F,,/F,,/F,,/F,,/ F,,3 | G,,6 | A,,6 | G,,6 | F,,/F,,/F,,/F,,/F,,/F,,/ F,,3 | %20
 G,,6 | A,,6 | G,,6 | F,,/F,,/F,,/F,,/F,,/F,,/ F,,3 | G,,6 | A,,6 | G,,6 |: %27
 F,,/F,,/F,,/F,,/F,,/F,,/ F,,3 | G,,6 | A,,6 | G,,6 | F,,/F,,/F,,/F,,/F,,/F,,/ F,,3 | G,,6 | A,,6 | %34
 G,,3 E,,3 :| %35

